src/next/cmd/lc_sectionaligntop.svg

<svg height="24" width="24" xmlns="http://www.w3.org/2000/svg" xmlns:xlink="http://www.w3.org/1999/xlink"><linearGradient id="a"><stop offset="0" stop-color="#0968ef"/><stop offset="1" stop-color="#aecffc"/></linearGradient><linearGradient id="b" gradientTransform="matrix(-.0001223 .24932918 .24932918 .0001223 6.084681 -23.949912)" gradientUnits="userSpaceOnUse" x1="113.15723" x2="39.268185" xlink:href="#a" y1="25.786163" y2="25.786163"/><linearGradient id="c"><stop offset="0" stop-color="#fff"/><stop offset="1" stop-color="#fff" stop-opacity="0"/></linearGradient><linearGradient id="d"><stop offset="0" stop-color="#fff"/><stop offset=".42597079" stop-color="#fff"/><stop offset=".5892781" stop-color="#f1f1f1"/><stop offset=".80219781" stop-color="#eaeaea"/><stop offset="1" stop-color="#dfdfdf"/></linearGradient><linearGradient id="e"><stop offset="0" stop-color="#b4b4b6"/><stop offset=".5" stop-color="#9c9ca1"/><stop offset="1" stop-color="#cdcdd1"/></linearGradient><linearGradient id="f" gradientTransform="matrix(.9681179 0 0 .7816984 -19.744944 -94.25359)" gradientUnits="userSpaceOnUse" x1="16.263456" x2="28.913122" xlink:href="#a" y1="67.869316" y2="-12.523698"/><linearGradient id="g" gradientTransform="matrix(.07287422 0 0 .05204769 -4.729628 19.398586)" gradientUnits="userSpaceOnUse" x1="399.77466" x2="399.77466" xlink:href="#e" y1="1164.6696" y2="549.06134"/><linearGradient id="h" gradientTransform="matrix(.6666667 0 0 .3333335 -6.666665 42.666668)" gradientUnits="userSpaceOnUse" x1="5.393398" x2="60.999996" xlink:href="#d" y1="160.4576" y2="27.999983"/><linearGradient id="i" gradientTransform="matrix(-.7098215 0 0 -.7098215 69.148295 86.071428)" gradientUnits="userSpaceOnUse" x1="79.675705" x2="108.625" xlink:href="#c" y1="11.57233" y2="32"/><linearGradient id="j" gradientTransform="matrix(0 .7098215 .7098215 0 1.928572 -19.827843)" gradientUnits="userSpaceOnUse" x1="79.675705" x2="108.625" xlink:href="#c" y1="11.57233" y2="32"/><linearGradient id="k" gradientTransform="matrix(.4947917 0 0 .3333335 -75.916665 -45.333332)" gradientUnits="userSpaceOnUse" x1="5.393398" x2="96.842094" xlink:href="#d" y1="160.4576" y2="27.999983"/><linearGradient id="l" gradientTransform="matrix(.05667995 0 0 .05204769 16.3214 -68.601414)" gradientUnits="userSpaceOnUse" x1="399.77466" x2="399.77466" xlink:href="#e" y1="1164.6696" y2="549.06134"/><g transform="matrix(1 0 0 -1 .00537 24.000996)"><g transform="matrix(0 .25 -.25 0 33 13)"><rect fill="url(#g)" height="32" rx="4.144231" width="32" x="-4" y="48"/><g fill-rule="evenodd"><rect fill="url(#h)" height="24" rx="1.5" ry="1.444444" width="24" y="52"/><path d="m12 76c7.583426-6.692254 6.89182-15.2164 11.320452-24h-19.320452c-1.082101 8.409239 3.34024 17.291584-1.316406 24z" fill="url(#i)"/></g></g><rect fill="url(#f)" height="96" rx="3.646447" ry="4" transform="matrix(0 .25 -.25 0 1 24)" width="8.000001" x="-12" y="-92"/><g transform="matrix(.25 0 0 -.25 1 27)"><rect fill="url(#l)" height="32.000008" rx="4.144231" transform="rotate(90)" width="48" x="28" y="-40"/><g fill-rule="evenodd"><rect fill="url(#k)" height="24" rx="1.5" ry="1.444444" transform="matrix(0 -1 -1 0 0 0)" width="40" x="-72" y="-36"/><path d="m13.285714 51.120816c6.692254-7.583426 13.930686-14.692184 22.714286-19.120816v19.320452c-8.409239 1.082101-16.00587 4.460124-22.714286 9.11677z" fill="url(#j)"/></g></g><path d="m13.051222 9.97301-4.98365-5.986348.991532-.990556 2.997268 1.945924-.056372-4.94203 1.99463.000996.056372 4.942032 2.948998-1.943028 1.04074.991554-4.98952 5.981454z" fill="url(#b)" fill-rule="evenodd"/></g></svg>

<?xml version="1.0" encoding="UTF-8" standalone="no"?>
<svg
   xmlns:dc="http://purl.org/dc/elements/1.1/"
   xmlns:cc="http://creativecommons.org/ns#"
   xmlns:rdf="http://www.w3.org/1999/02/22-rdf-syntax-ns#"
   xmlns:svg="http://www.w3.org/2000/svg"
   xmlns="http://www.w3.org/2000/svg"
   xmlns:xlink="http://www.w3.org/1999/xlink"
   xmlns:sodipodi="http://sodipodi.sourceforge.net/DTD/sodipodi-0.dtd"
   xmlns:inkscape="http://www.inkscape.org/namespaces/inkscape"
   height="24"
   width="24"
   version="1.1"
   id="svg58"
   sodipodi:docname="lc_sectionaligntop.svg"
   inkscape:version="0.92.4 (unknown)"
   inkscape:export-filename="/home/rizmut/Dokumen/Rizmut/Github/libreoffice-style-karasa-jaga/build/next/cmd/lc_sectionaligntop.png"
   inkscape:export-xdpi="96"
   inkscape:export-ydpi="96">
  <metadata
     id="metadata64">
    <rdf:RDF>
      <cc:Work
         rdf:about="">
        <dc:format>image/svg+xml</dc:format>
        <dc:type
           rdf:resource="http://purl.org/dc/dcmitype/StillImage" />
        <dc:title></dc:title>
      </cc:Work>
    </rdf:RDF>
  </metadata>
  <defs
     id="defs62">
    <linearGradient
       inkscape:collect="always"
       xlink:href="#linearGradient2399-7"
       id="linearGradient3358"
       gradientUnits="userSpaceOnUse"
       gradientTransform="matrix(-1.22302e-4,0.24932918,0.24932918,1.22302e-4,6.084681,-23.949912)"
       x1="113.15723"
       y1="25.786163"
       x2="39.268185"
       y2="25.786163" />
    <linearGradient
       id="linearGradient2399-7">
      <stop
         style="stop-color:#0968ef;stop-opacity:1;"
         offset="0"
         id="stop2401-6" />
      <stop
         style="stop-color:#aecffc;stop-opacity:1;"
         offset="1"
         id="stop2403-5" />
    </linearGradient>
  </defs>
  <sodipodi:namedview
     pagecolor="#ffffff"
     bordercolor="#666666"
     borderopacity="1"
     objecttolerance="10"
     gridtolerance="10"
     guidetolerance="10"
     inkscape:pageopacity="0"
     inkscape:pageshadow="2"
     inkscape:window-width="1366"
     inkscape:window-height="714"
     id="namedview60"
     showgrid="true"
     inkscape:zoom="9.8333333"
     inkscape:cx="19.383329"
     inkscape:cy="11.439452"
     inkscape:window-x="0"
     inkscape:window-y="28"
     inkscape:window-maximized="1"
     inkscape:current-layer="g124">
    <inkscape:grid
       type="xygrid"
       id="grid66" />
  </sodipodi:namedview>
  <linearGradient
     id="a">
    <stop
       offset="0"
       stop-color="#fff"
       id="stop2" />
    <stop
       offset="1"
       stop-color="#fff"
       stop-opacity="0"
       id="stop4" />
  </linearGradient>
  <linearGradient
     id="b">
    <stop
       offset="0"
       stop-color="#fff"
       id="stop7" />
    <stop
       offset=".42597079"
       stop-color="#fff"
       id="stop9" />
    <stop
       offset=".5892781"
       stop-color="#f1f1f1"
       id="stop11" />
    <stop
       offset=".80219781"
       stop-color="#eaeaea"
       id="stop13" />
    <stop
       offset="1"
       stop-color="#dfdfdf"
       id="stop15" />
  </linearGradient>
  <linearGradient
     id="c">
    <stop
       offset="0"
       stop-color="#b4b4b6"
       id="stop18" />
    <stop
       offset=".5"
       stop-color="#9c9ca1"
       id="stop20" />
    <stop
       offset="1"
       stop-color="#cdcdd1"
       id="stop22" />
  </linearGradient>
  <linearGradient
     id="d"
     gradientTransform="matrix(0.9681179,0,0,0.7816984,-19.744944,-94.25359)"
     gradientUnits="userSpaceOnUse"
     x1="16.263456"
     x2="28.913122"
     y1="67.869316"
     y2="-12.523698">
    <stop
       offset="0"
       stop-color="#0968ef"
       id="stop25" />
    <stop
       offset="1"
       stop-color="#aecffc"
       id="stop27" />
  </linearGradient>
  <linearGradient
     id="e"
     gradientTransform="matrix(0.07287422,0,0,0.05204769,-4.729628,19.398586)"
     gradientUnits="userSpaceOnUse"
     x1="399.77466"
     x2="399.77466"
     xlink:href="#c"
     y1="1164.6696"
     y2="549.06134" />
  <linearGradient
     id="f"
     gradientTransform="matrix(0.6666667,0,0,0.3333335,-6.666665,42.666668)"
     gradientUnits="userSpaceOnUse"
     x1="5.393398"
     x2="60.999996"
     xlink:href="#b"
     y1="160.4576"
     y2="27.999983" />
  <linearGradient
     id="g"
     gradientTransform="matrix(-0.7098215,0,0,-0.7098215,69.148295,86.071428)"
     gradientUnits="userSpaceOnUse"
     x1="79.675705"
     x2="108.625"
     xlink:href="#a"
     y1="11.57233"
     y2="32" />
  <linearGradient
     id="h"
     gradientTransform="matrix(0,0.7098215,0.7098215,0,1.928572,-19.827843)"
     gradientUnits="userSpaceOnUse"
     x1="79.675705"
     x2="108.625"
     xlink:href="#a"
     y1="11.57233"
     y2="32" />
  <linearGradient
     id="i"
     gradientTransform="matrix(0.4947917,0,0,0.3333335,-75.916665,-45.333332)"
     gradientUnits="userSpaceOnUse"
     x1="5.393398"
     x2="96.842094"
     xlink:href="#b"
     y1="160.4576"
     y2="27.999983" />
  <linearGradient
     id="j"
     gradientTransform="matrix(0.05667995,0,0,0.05204769,16.3214,-68.601414)"
     gradientUnits="userSpaceOnUse"
     x1="399.77466"
     x2="399.77466"
     xlink:href="#c"
     y1="1164.6696"
     y2="549.06134" />
  <g
     id="g124"
     transform="matrix(1,0,0,-1,0.00537,24.000996)">
    <g
       id="g44"
       transform="matrix(0,0.25,-0.25,0,33,13)">
      <rect
         style="fill:url(#e)"
         id="rect36"
         y="48"
         x="-4"
         width="32"
         rx="4.1442308"
         height="32" />
      <g
         id="g42"
         style="fill-rule:evenodd">
        <rect
           style="fill:url(#f)"
           x="0"
           id="rect38"
           y="52"
           width="24"
           ry="1.4444439"
           rx="1.5"
           height="24" />
        <path
           sodipodi:nodetypes="ccccc"
           inkscape:connector-curvature="0"
           style="fill:url(#g)"
           id="path40"
           d="M 12,76 C 19.583426,69.307746 18.89182,60.7836 23.320452,52 H 4 C 2.917899,60.409239 7.34024,69.291584 2.683594,76 Z" />
      </g>
    </g>
    <rect
       id="rect46"
       y="-92"
       x="-12"
       width="8.000001"
       transform="matrix(0,0.25,-0.25,0,1,24)"
       ry="4"
       rx="3.6464469"
       height="96"
       style="fill:url(#d)" />
    <g
       id="g56"
       transform="matrix(0.25,0,0,-0.25,1,27)">
      <rect
         style="fill:url(#j)"
         id="rect48"
         y="-40"
         x="28"
         width="48"
         transform="rotate(90)"
         rx="4.1442308"
         height="32.000008" />
      <g
         id="g54"
         style="fill-rule:evenodd">
        <rect
           style="fill:url(#i)"
           id="rect50"
           y="-36"
           x="-72"
           width="40"
           transform="matrix(0,-1,-1,0,0,0)"
           ry="1.4444439"
           rx="1.5"
           height="24" />
        <path
           sodipodi:nodetypes="ccccc"
           inkscape:connector-curvature="0"
           style="fill:url(#h)"
           id="path52"
           d="M 13.285714,51.120816 C 19.977968,43.53739 27.2164,36.428632 36,32 v 19.320452 c -8.409239,1.082101 -16.00587,4.460124 -22.714286,9.11677 z" />
      </g>
    </g>
    <path
       sodipodi:nodetypes="ccccccccccc"
       id="path3356"
       d="M 13.051222,9.97301 8.067572,3.986662 9.059104,2.996106 12.056372,4.94203 12,0 13.99463,9.96e-4 14.051002,4.943028 17,3 18.04074,3.991554 13.05122,9.973008 Z"
       style="fill:url(#linearGradient3358);fill-opacity:1;fill-rule:evenodd;stroke:none;stroke-width:0.34375"
       inkscape:connector-curvature="0" />
  </g>
</svg>
